assets/icons/24px/stroke/triangle-24px.svg

<svg width="24" height="24" viewBox="0 0 24 24" fill="none" xmlns="http://www.w3.org/2000/svg">
<path fill-rule="evenodd" clip-rule="evenodd" d="M11.9865 4.39383C11.7663 4.70941 11.5111 5.21395 11.1056 6.02493L4.84165 18.5528C4.50237 19.2314 4.3015 19.6391 4.20457 19.9353C4.203 19.9401 4.20149 19.9448 4.20002 19.9494C4.20478 19.9501 4.20966 19.9508 4.21465 19.9516C4.52294 19.9974 4.97743 20 5.73608 20H18.2639C19.0226 20 19.4771 19.9974 19.7854 19.9516C19.7904 19.9508 19.7952 19.9501 19.8 19.9494C19.7985 19.9448 19.797 19.9401 19.7955 19.9353C19.6985 19.6391 19.4977 19.2314 19.1584 18.5528L12.8944 6.02494C12.4889 5.21396 12.2337 4.70942 12.0135 4.39383C12.0089 4.38726 12.0044 4.38089 12 4.37472C11.9956 4.38089 11.9911 4.38726 11.9865 4.39383ZM12.1533 4.19437C12.1533 4.19464 12.1508 4.19678 12.1458 4.19995C12.1509 4.19568 12.1533 4.19409 12.1533 4.19437ZM11.8542 4.19995C11.8492 4.19678 11.8467 4.19464 11.8467 4.19437C11.8467 4.19409 11.8492 4.19568 11.8542 4.19995ZM19.8413 20.1254C19.8412 20.1253 19.841 20.1232 19.8412 20.1194C19.8415 20.1236 19.8414 20.1255 19.8413 20.1254ZM19.9705 19.9101C19.9738 19.9083 19.9758 19.9075 19.9759 19.9076C19.9761 19.9076 19.9744 19.9085 19.9705 19.9101ZM4.0241 19.9076C4.02423 19.9075 4.02619 19.9083 4.02956 19.9101C4.02566 19.9085 4.02397 19.9076 4.0241 19.9076ZM4.15888 20.1194C4.15899 20.1232 4.15883 20.1253 4.15872 20.1254C4.15861 20.1255 4.15855 20.1236 4.15888 20.1194ZM10.3465 3.24916C10.6668 2.79024 11.1797 2.23608 12 2.23608C12.8203 2.23608 13.3332 2.79024 13.6535 3.24916C13.9683 3.70012 14.2884 4.34046 14.6495 5.06299C14.6608 5.08542 14.672 5.10793 14.6833 5.13051L20.9472 17.6584C20.9578 17.6795 20.9683 17.7006 20.9788 17.7216C21.2759 18.3156 21.5474 18.8584 21.6963 19.3133C21.855 19.7983 21.9619 20.4389 21.5833 21.0515C21.2047 21.6641 20.5839 21.8549 20.0791 21.9299C19.6057 22.0002 18.9988 22.0001 18.3346 22C18.3111 22 18.2876 22 18.2639 22H5.73608C5.71246 22 5.68891 22 5.66543 22C5.00127 22.0001 4.39432 22.0002 3.92088 21.9299C3.41612 21.8549 2.79534 21.6641 2.41675 21.0515C2.03815 20.4389 2.14505 19.7983 2.30374 19.3133C2.45259 18.8584 2.7241 18.3156 3.02121 17.7215C3.03171 17.7006 3.04224 17.6795 3.0528 17.6584L9.31673 5.13051C9.32803 5.10792 9.33928 5.08541 9.35049 5.06298C9.71167 4.34046 10.0318 3.70012 10.3465 3.24916Z" fill="white"/>
</svg>

<svg width="24" height="24" fill="none" xmlns="http://www.w3.org/2000/svg"><path fill-rule="evenodd" clip-rule="evenodd" d="M11.986 4.394c-.22.315-.475.82-.88 1.63L4.842 18.554c-.34.678-.54 1.086-.637 1.382l-.005.014.015.003c.308.045.762.048 1.521.048h12.528c.759 0 1.213-.003 1.521-.048l.015-.003a1.2 1.2 0 0 1-.005-.014c-.097-.296-.297-.704-.637-1.382L12.894 6.025c-.405-.811-.66-1.316-.88-1.631a2.705 2.705 0 0 0-.014-.02 2.705 2.705 0 0 0-.014.02zm.167-.2l-.007.006a.034.034 0 0 1 .007-.006zm-.299.006a.035.035 0 0 1-.007-.006l.007.006zm7.987 15.925v-.006.006zm.13-.215a.024.024 0 0 1 .005-.002l-.005.002zm-15.947-.002l.006.002a.038.038 0 0 1-.006-.002zm.135.211a.03.03 0 0 1 0 .006v-.006zm6.188-16.87c.32-.459.833-1.013 1.653-1.013.82 0 1.333.554 1.653 1.013.315.451.635 1.091.996 1.814l.034.068 6.264 12.527.032.064c.297.594.568 1.136.717 1.591.159.485.266 1.126-.113 1.739-.378.612-1 .803-1.504.878-.473.07-1.08.07-1.744.07H5.666C5 22 4.393 22 3.92 21.93c-.505-.075-1.126-.266-1.504-.878-.379-.613-.272-1.254-.113-1.739.149-.455.42-.997.717-1.591l.032-.064L9.317 5.131l.033-.068c.362-.723.682-1.363.997-1.814z" fill="#fff"/></svg>
